; HEADER_BLOCK_START
; generated by OrcaSlicer 2.3.0 on 2026-04-10 at 10:47:18
; total layer number: 81
;_GP_TOTAL_LAYER_NUMBER_PLACEHOLDER
; filament_density: 1.24,1.24
; filament_diameter: 1.75,1.75
; max_z_height: 20.10
; HEADER_BLOCK_END

; THUMBNAIL_BLOCK_START

;
; THUMBNAIL_BLOCK_END

; external perimeters extrusion width = 0.82mm
; perimeters extrusion width = 0.84mm
; infill extrusion width = 0.90mm
; solid infill extrusion width = 0.90mm
; top infill extrusion width = 0.81mm
; first layer extrusion width = 0.83mm

; EXECUTABLE_BLOCK_START
M73 P0 R4
M201 X500 Y500 Z150 E5000
M203 X300 Y300 Z12 E120
M204 P2000 R2500 T100 ; sets acceleration (P, T) and retract acceleration (R), mm/sec^2
M205 X12.00 Y12.00 Z0.20 E2.50 ; sets the jerk limits, mm/sec
;TYPE:Custom
M808 L2                ;loop 2
M862.3 P "MK3S" ; printer model check
M862.1 P0.8 ; nozzle diameter check
M115 U3.13.0 ; tell printer latest fw version
G90 ; use absolute coordinates
M83 ; extruder relative mode
M104 S210 ; set extruder temp
M140 S60 ; set bed temp
M190 S60 ; wait for bed temp
M109 S210 ; wait for extruder temp
G28
M420 S1                                   ; enable bed leveling (use last loaded mesh)
G29 L1
G92 E0
M221 S95
G90
G21
M83 ; use relative distances for extrusion
; filament start gcode
M900 K0.01 ; Filament gcode LA 1.5
; ; Filament gcode LA 1.0
; MANUAL_TOOL_CHANGE T0
M106 S0
;LAYER_CHANGE
;Z:0.35
;HEIGHT:0.35
;BEFORE_LAYER_CHANGE
;0.35
G92 E0

G1 Z.35 F720
;AFTER_LAYER_CHANGE
;0.35
;_SET_FAN_SPEED_CHANGING_LAYER
M204 P800
; printing object Cylinder id:1656995512976 copy 0
M204 T100
G1 E-4.35 F2700
G1 X6.899 Y-6.901 F10800
G1 E4.35 F2520
;TYPE:Outer wall
;WIDTH:0.83
G1 F600
G1 X6.546 Y-7.3 E.05784
G1 X6.202 Y-7.81 E.06693
G1 X5.964 Y-8.287 E.05801
G1 X5.785 Y-8.792 E.05824
G1 X5.67 Y-9.314 E.05812
G1 X5.619 Y-9.846 E.05807
G1 X5.64 Y-10.46 E.06686
G1 X5.728 Y-10.986 E.05801
G1 X5.88 Y-11.5 E.05824
G1 X6.093 Y-11.989 E.05808
G1 X6.41 Y-12.516 E.06688
G1 X6.742 Y-12.934 E.05795
G1 X7.124 Y-13.309 E.05824
G1 X7.549 Y-13.635 E.05826
G1 X8.009 Y-13.906 E.05806
G1 X8.573 Y-14.145 E.06662
G1 X9.165 Y-14.304 E.0667
G1 X9.877 Y-14.379 E.07786
G1 X10.381 Y-14.357 E.05486
G1 X11.024 Y-14.252 E.07087
G1 X11.533 Y-14.099 E.0577
G1 X12.053 Y-13.861 E.06223
G1 X12.571 Y-13.538 E.06638
G1 X13.068 Y-13.117 E.07086
G1 X13.425 Y-12.724 E.0577
G1 X13.765 Y-12.225 E.06568
G1 X14.017 Y-11.736 E.05987
G1 X14.197 Y-11.24 E.0574
G1 X14.318 Y-10.711 E.05891
G1 X14.384 Y-9.925 E.08583
G1 X14.33 Y-9.312 E.06686
G1 X14.215 Y-8.793 E.05783
G1 X14.005 Y-8.217 E.06672
G1 X13.718 Y-7.677 E.06651
G1 X13.358 Y-7.182 E.06652
M73 P1 R4
G1 X12.932 Y-6.741 E.06669
G1 X12.516 Y-6.41 E.05783
G1 X11.989 Y-6.093 E.0669
G1 X11.5 Y-5.88 E.05799
G1 X10.986 Y-5.728 E.05825
G1 X10.458 Y-5.64 E.05827
G1 X9.925 Y-5.616 E.05795
G1 X9.312 Y-5.67 E.06689
G1 X8.792 Y-5.785 E.058
G1 X8.287 Y-5.964 E.05825
G1 X7.808 Y-6.203 E.05822
G1 X7.363 Y-6.498 E.05802
G1 X6.923 Y-6.88 E.0634
G1 E-3.045 F2700
;WIPE_START
G1 F600
G1 X6.546 Y-7.3 E-.73557
G1 X6.302 Y-7.661 E-.56943
;WIPE_END
G1 X11.526 Y-13.86 F10800
G1 E4.35 F2520
;TYPE:Bottom surface
;WIDTH:0.837313
G1 F900
G1 X12.858 Y-12.528 E.20685
G1 X13.124 Y-12.193 E.04701
G1 X13.403 Y-11.729 E.0594
G1 X13.587 Y-11.306 E.05068
G1 X13.719 Y-10.859 E.05121
G1 X13.774 Y-10.534 E.03614
G1 X10.532 Y-13.775 E.50332
G1 X10.054 Y-13.817 E.05268
G1 X9.742 Y-13.809 E.03425
G1 X9.458 Y-13.771 E.0315
G1 X13.774 Y-9.455 E.67021
G1 X13.769 Y-9.399 E.00624
G1 X13.67 Y-8.952 E.05024
G1 X13.545 Y-8.607 E.04031
G1 X8.607 Y-13.545 E.76673
G1 X8.264 Y-13.399 E.04088
M73 P2 R4
G1 X7.893 Y-13.181 E.0473
G1 X13.177 Y-7.896 E.82059
G1 X12.924 Y-7.547 E.04744
G1 X12.69 Y-7.305 E.03684
G1 X7.304 Y-12.692 E.83646
G1 X7.163 Y-12.554 E.02163
G1 X6.876 Y-12.193 E.05064
G1 X6.819 Y-12.099 E.01211
G1 X12.099 Y-6.819 E.81977
G1 X11.729 Y-6.597 E.04734
G1 X11.39 Y-6.45 E.04058
G1 X6.45 Y-11.39 E.76712
G1 X6.413 Y-11.306 E.01011
G1 X6.281 Y-10.858 E.0512
G1 X6.227 Y-10.535 E.03597
G1 X10.535 Y-6.227 E.66906
G1 X10.398 Y-6.204 E.01525
M73 P3 R4
G1 X9.938 Y-6.184 E.05064
G1 X9.458 Y-6.226 E.05281
G1 X6.224 Y-9.46 E.50219
G1 X6.23 Y-9.403 E.00627
G1 X6.331 Y-8.949 E.05108
G1 X6.486 Y-8.509 E.05121
G1 X6.692 Y-8.096 E.0507
G1 X6.995 Y-7.647 E.05943
G1 X7.268 Y-7.339 E.0452
G1 X8.465 Y-6.142 E.18588
; stop printing object Cylinder id:1656995512976 copy 0
;LAYER_CHANGE
;Z:0.6
;HEIGHT:0.25
;BEFORE_LAYER_CHANGE
;0.6
G92 E0

G1 Z.6 F720
;AFTER_LAYER_CHANGE
;0.6
;_SET_FAN_SPEED_CHANGING_LAYER
M204 P1000
; printing object Cylinder id:1656995512976 copy 0
G1 E-3.045 F2700
;WIPE_START
G1 F900
G1 X7.758 Y-6.849 E-1.305
;WIPE_END
G1 X11.496 Y-5.996 F10800
G1 E4.35 F2520
;TYPE:Internal solid infill
;WIDTH:0.917523
G1 F1650
G1 X12.863 Y-7.363 E.17187
G1 X13.029 Y-7.547 E.02204
G1 X13.266 Y-7.874 E.03585
G1 X13.504 Y-8.294 E.04297
G1 X13.66 Y-8.663 E.03557
G1 X13.797 Y-9.123 E.0427
G1 X13.876 Y-9.598 E.0428
G1 X10.405 Y-6.127 E.43637
G1 X10.073 Y-6.104 E.0296
G1 X9.593 Y-6.125 E.04271
G1 X9.24 Y-6.184 E.03179
G1 X13.816 Y-10.76 E.5753
G1 X13.796 Y-10.88 E.01076
G1 X13.686 Y-11.264 E.03559
G1 X13.514 Y-11.68 E.03995
G1 X8.32 Y-6.486 E.65295
G1 X7.993 Y-6.659 E.03293
G1 X7.658 Y-6.885 E.03586
G1 X7.572 Y-6.959 E.01014
G1 X13.044 Y-12.431 E.68792
G1 X13.029 Y-12.453 E.00233
G1 X12.759 Y-12.752 E.03583
G1 X12.432 Y-13.041 E.03878
G1 X6.959 Y-7.568 E.688
G1 X6.769 Y-7.821 E.02809
M73 P4 R4
G1 X6.558 Y-8.172 E.03643
G1 X6.489 Y-8.32 E.0145
G1 X11.682 Y-13.513 E.65284
G1 X11.651 Y-13.53 E.00314
G1 X11.2 Y-13.708 E.04314
G1 X10.81 Y-13.812 E.03584
G1 X10.767 Y-13.819 E.00394
G1 X6.184 Y-9.236 E.57612
G1 X6.151 Y-9.39 E.01403
G1 X6.108 Y-9.796 E.03626
G1 X6.108 Y-10.204 E.03626
G1 X6.129 Y-10.403 E.01781
G1 X9.598 Y-13.872 E.43606
G1 X9.52 Y-13.867 E.00693
G1 X9.125 Y-13.798 E.03565
G1 X8.731 Y-13.685 E.03643
G1 X8.353 Y-13.532 E.03626
G1 X7.993 Y-13.341 E.03625
G1 X7.655 Y-13.112 E.03627
G1 X7.418 Y-12.914 E.02744
G1 X5.99 Y-11.486 E.17948
G1 X5.694 Y-11.572 F10800
;TYPE:Outer wall
;WIDTH:0.819999
G1 F2400
G1 X5.716 Y-11.645 E.00601
G1 X5.949 Y-12.156 E.0443
G1 X6.333 Y-12.75 E.05581
G1 X6.7 Y-13.177 E.04439
G1 X7.238 Y-13.665 E.05728
G1 X7.85 Y-14.048 E.0569
G1 X8.506 Y-14.339 E.0566
G1 X9.195 Y-14.512 E.05599
G1 X9.756 Y-14.574 E.04455
G1 X10.48 Y-14.564 E.05707
G1 X11.176 Y-14.43 E.05593
G1 X11.719 Y-14.246 E.04521
G1 X12.362 Y-13.935 E.05633
G1 X12.825 Y-13.616 E.04432
G1 X13.246 Y-13.244 E.04432
G1 X13.702 Y-12.702 E.0558
G1 X13.987 Y-12.255 E.0418
G1 X14.232 Y-11.753 E.04409
G1 X14.406 Y-11.262 E.04103
G1 X14.518 Y-10.754 E.04105
G1 X14.578 Y-10.229 E.04171
G1 X14.577 Y-9.771 E.03612
G1 X14.518 Y-9.244 E.0418
G1 X14.38 Y-8.658 E.04742
G1 X14.125 Y-7.988 E.05657
G1 X13.848 Y-7.499 E.04431
G1 X13.413 Y-6.941 E.0558
G1 X13.003 Y-6.54 E.0452
G1 X12.433 Y-6.109 E.05635
G1 X11.938 Y-5.84 E.04444
G1 X11.273 Y-5.597 E.0558
G1 X10.786 Y-5.485 E.03946
G1 X10.082 Y-5.411 E.05581
G1 X9.52 Y-5.436 E.04432
G1 X8.966 Y-5.529 E.04432
G1 X8.293 Y-5.747 E.0558
G1 X7.839 Y-5.958 E.03945
G1 X7.239 Y-6.334 E.05582
G1 X6.811 Y-6.7 E.04445
G1 X6.346 Y-7.234 E.05581
G1 X6.065 Y-7.651 E.03969
G1 X5.745 Y-8.279 E.05558
G1 X5.567 Y-8.814 E.04445
G1 X5.442 Y-9.525 E.05691
G1 X5.417 Y-10.24 E.05646
G1 X5.52 Y-10.965 E.05769
G1 X5.686 Y-11.541 E.04729
; stop printing object Cylinder id:1656995512976 copy 0
M106 S240
;LAYER_CHANGE
;Z:0.85
;HEIGHT:0.25
;BEFORE_LAYER_CHANGE
;0.85
G92 E0

G1 Z.85 F720
;AFTER_LAYER_CHANGE
;0.85
;_SET_FAN_SPEED_CHANGING_LAYER
; printing object Cylinder id:1656995512976 copy 0
G1 E-3.225 F2700
;WIPE_START
G1 F2400
G1 X5.716 Y-11.645 E-.1218
G1 X5.949 Y-12.156 E-.63201
G1 X6.128 Y-12.433 E-.37119
;WIPE_END
G1 X14.004 Y-11.495 F10800
G1 E4.35 F2520
;TYPE:Internal solid infill
;WIDTH:0.917796
G1 F2039
G1 X12.635 Y-12.865 E.17219
G1 X12.452 Y-13.029 E.02181
G1 X12.126 Y-13.266 E.03584
G1 X11.708 Y-13.502 E.04274
G1 X11.269 Y-13.684 E.04229
M73 P5 R4
G1 X10.805 Y-13.813 E.04275
G1 X10.401 Y-13.876 E.03639
G1 X13.876 Y-10.401 E.43699
G1 X13.897 Y-10 E.03571
G1 X13.876 Y-9.597 E.03586
G1 X13.816 Y-9.239 E.0323
G1 X9.237 Y-13.818 E.57586
G1 X9.19 Y-13.811 E.0042
G1 X8.727 Y-13.683 E.04274
G1 X8.357 Y-13.534 E.03542
G1 X8.32 Y-13.513 E.00381
G1 X13.514 Y-8.319 E.65318
G1 X13.343 Y-7.997 E.03245
G1 X13.071 Y-7.601 E.04272
G1 X13.042 Y-7.569 E.00381
G1 X7.568 Y-13.043 E.68835
G1 X7.544 Y-13.026 E.00264
G1 X7.248 Y-12.759 E.03544
G1 X6.958 Y-12.431 E.03892
G1 X12.432 Y-6.957 E.68835
G1 X12.065 Y-6.695 E.04007
G1 X11.68 Y-6.487 E.03892
G1 X6.489 Y-11.678 E.65282
G1 X6.44 Y-11.585 E.00933
G1 X6.272 Y-11.135 E.04273
G1 X6.18 Y-10.765 E.0339
G1 X10.762 Y-6.183 E.57624
G1 X10.479 Y-6.133 E.02552
G1 X10 Y-6.103 E.04271
G1 X9.594 Y-6.128 E.03613
G1 X6.131 Y-9.592 E.43556
G1 X6.142 Y-9.453 E.01238
G1 X6.219 Y-9.057 E.03585
G1 X6.338 Y-8.667 E.03628
G1 X6.497 Y-8.292 E.03626
G1 X6.693 Y-7.939 E.03585
G1 X6.975 Y-7.544 E.04315
G1 X7.137 Y-7.364 E.02155
G1 X8.502 Y-5.998 E.17171
G1 X8.383 Y-5.712 F10800
;TYPE:Outer wall
;WIDTH:0.819999
G1 F2039
G1 X7.987 Y-5.876 E.03385
G1 X7.38 Y-6.24 E.0558
G1 X6.965 Y-6.569 E.04179
G1 X6.594 Y-6.933 E.04097
G1 X6.26 Y-7.355 E.04246
G1 X5.986 Y-7.787 E.04031
G1 X5.687 Y-8.43 E.05592
G1 X5.503 Y-9.115 E.05594
G1 X5.431 Y-9.671 E.0442
G1 X5.428 Y-10.403 E.0577
G1 X5.55 Y-11.098 E.05567
G1 X5.709 Y-11.604 E.04182
G1 X5.937 Y-12.115 E.0441
G1 X6.225 Y-12.595 E.04411
G1 X6.569 Y-13.035 E.0441
G1 X6.933 Y-13.406 E.04096
G1 X7.34 Y-13.729 E.04098
G1 X7.853 Y-14.046 E.04752
G1 X8.504 Y-14.339 E.05632
G1 X9.046 Y-14.489 E.04434
G1 X9.603 Y-14.572 E.04444
G1 X10.25 Y-14.576 E.05103
G1 X10.952 Y-14.489 E.05578
G1 X11.494 Y-14.339 E.04435
G1 X12.012 Y-14.125 E.04417
G1 X12.501 Y-13.848 E.04433
M73 P6 R4
G1 X13.059 Y-13.413 E.05579
G1 X13.431 Y-13.035 E.0418
G1 X13.775 Y-12.594 E.04411
G1 X14.052 Y-12.142 E.04178
G1 X14.339 Y-11.496 E.05579
G1 X14.489 Y-10.952 E.04447
G1 X14.576 Y-10.25 E.0558
G1 X14.577 Y-9.771 E.03781
G1 X14.512 Y-9.211 E.04439
G1 X14.339 Y-8.506 E.0573
G1 X14.052 Y-7.857 E.05593
G1 X13.775 Y-7.405 E.0418
G1 X13.431 Y-6.965 E.0441
G1 X13.067 Y-6.594 E.04097
G1 X12.66 Y-6.271 E.04097
G1 X12.157 Y-5.959 E.0467
G1 X11.494 Y-5.661 E.05728
G1 X10.806 Y-5.488 E.05594
G1 X10.28 Y-5.428 E.04179
G1 X9.72 Y-5.428 E.04411
G1 X9.194 Y-5.488 E.0418
G1 X8.507 Y-5.66 E.05579
G1 X8.413 Y-5.699 E.00807
; stop printing object Cylinder id:1656995512976 copy 0
;LAYER_CHANGE
;Z:1.1
;HEIGHT:0.25
;BEFORE_LAYER_CHANGE
;1.1
G92 E0

G1 Z1.1 F720
;AFTER_LAYER_CHANGE
;1.1
;_SET_FAN_SPEED_CHANGING_LAYER
; printing object Cylinder id:1656995512976 copy 0
G1 E-3.70714 F2700
;WIPE_START
G1 F4200
G1 X7.987 Y-5.876 E-.29656
G1 X7.525 Y-6.153 E-.34629
;WIPE_END
G1 X13.98 Y-8.429 F10800
G1 E4.35 F2520
;TYPE:Top surface
;WIDTH:0.838941
G1 F900
G1 X11.567 Y-6.016 E.27577
G1 E-3.045 F2700
;WIPE_START
G1 F900
G1 X12.274 Y-6.723 E-1.305
;WIPE_END
G1 X10.163 Y-5.723 F10800
G1 E4.35 F2520
G1 F900
G1 X14.275 Y-9.835 E.46989
G1 E-3.045 F2700
;WIPE_START
G1 F900
G1 X13.568 Y-9.127 E-1.305
;WIPE_END
G1 X14.19 Y-10.86 F10800
G1 E4.35 F2520
G1 F900
G1 X9.14 Y-5.81 E.57713
G1 X8.295 Y-6.076 F10800
M73 P7 R4
G1 F900
G1 X13.922 Y-11.702 E.64297
G1 X13.529 Y-12.42 F10800
G1 F900
G1 X7.578 Y-6.469 E.68003
G1 X6.973 Y-6.974 F10800
G1 F900
G1 X13.028 Y-13.029 E.69191
G1 X12.417 Y-13.529 F10800
G1 F900
G1 X6.471 Y-7.583 E.67952
G1 X6.076 Y-8.298 F10800
M73 P8 R4
G1 F900
G1 X11.7 Y-13.923 E.64275
G1 X10.861 Y-14.194 F10800
G1 F900
G1 X5.806 Y-9.139 E.5777
G1 E-3.045 F2700
;WIPE_START
G1 F900
G1 X6.513 Y-9.846 E-1.305
;WIPE_END
G1 X5.726 Y-10.17 F10800
G1 E4.35 F2520
G1 F900
G1 X9.825 Y-14.269 E.4685
G1 E-3.045 F2700
;WIPE_START
G1 F900
G1 X9.118 Y-13.562 E-1.305
;WIPE_END
G1 X8.428 Y-13.983 F10800
G1 E4.35 F2520
G1 F900
G1 X6.024 Y-11.579 E.27471
G1 X5.75 Y-11.704 F10800
;TYPE:Outer wall
;WIDTH:0.819999
G1 F4200
G1 X5.937 Y-12.116 E.03574
G1 X6.244 Y-12.622 E.0466
G1 X6.699 Y-13.188 E.0573
G1 X7.248 Y-13.665 E.05739
G1 X7.845 Y-14.052 E.0561
G1 X8.52 Y-14.338 E.05777
G1 X9.008 Y-14.475 E.03999
G1 X9.677 Y-14.578 E.05335
G1 X10.226 Y-14.568 E.04332
G1 X10.952 Y-14.489 E.05759
G1 X11.494 Y-14.339 E.04434
G1 X12.013 Y-14.124 E.0443
G1 X12.622 Y-13.759 E.05598
G1 X13.06 Y-13.409 E.04421
G1 X13.567 Y-12.888 E.0573
G1 X13.964 Y-12.301 E.05593
G1 X14.208 Y-11.809 E.04328
G1 X14.386 Y-11.33 E.04029
G1 X14.545 Y-10.639 E.05593
G1 X14.578 Y-9.682 E.07552
G1 X14.504 Y-9.119 E.04478
G1 X14.31 Y-8.442 E.05551
G1 X14.099 Y-7.956 E.0418
G1 X13.82 Y-7.472 E.04408
G1 X13.511 Y-7.054 E.04092
G1 X13.137 Y-6.662 E.04275
M73 P9 R4
G1 X12.748 Y-6.332 E.04022
G1 X12.155 Y-5.948 E.05576
G1 X11.503 Y-5.67 E.05588
G1 X10.97 Y-5.523 E.04358
G1 X10.467 Y-5.441 E.04022
G1 X9.76 Y-5.417 E.05576
G1 X9.057 Y-5.515 E.05593
G1 X8.518 Y-5.666 E.04416
G1 X7.842 Y-5.95 E.05784
G1 X7.231 Y-6.348 E.05749
G1 X6.697 Y-6.814 E.05587
G1 X6.334 Y-7.239 E.04415
G1 X5.958 Y-7.839 E.05579
G1 X5.731 Y-8.339 E.04328
G1 X5.57 Y-8.824 E.04031
G1 X5.436 Y-9.52 E.05593
G1 X5.423 Y-10.24 E.05678
G1 X5.512 Y-10.958 E.05703
G1 X5.718 Y-11.634 E.05577
G1 X5.736 Y-11.675 E.00348
; stop printing object Cylinder id:1656995512976 copy 0
;LAYER_CHANGE
;Z:1.35
;HEIGHT:0.25
;BEFORE_LAYER_CHANGE
;1.35
G92 E0

G1 Z1.100 F720
;AFTER_LAYER_CHANGE
;1.35
;_SET_FAN_SPEED_CHANGING_LAYER
; printing object Cylinder id:1656995512976 copy 0
;WIDTH:0.82
G1 F576
G1 Z1.100 X5.746 Y-11.724 E0.00001
G1 Z1.102 X5.808 Y-11.869 E0.00009
G1 Z1.103 X5.874 Y-12.011 E0.00016
G1 Z1.105 X5.948 Y-12.156 E0.00024
G1 Z1.105 X5.985 Y-12.224 E0.00013
G1 Z1.107 X6.066 Y-12.365 E0.00034
G1 Z1.107 X6.109 Y-12.435 E0.00019
G1 Z1.109 X6.195 Y-12.567 E0.00043
G1 Z1.110 X6.288 Y-12.699 E0.00052
G1 Z1.111 X6.333 Y-12.761 E0.00026
G1 Z1.112 X6.436 Y-12.893 E0.00065
G1 Z1.114 X6.537 Y-13.013 E0.00067
G1 Z1.114 X6.588 Y-13.07 E0.00034
G1 Z1.116 X6.699 Y-13.19 E0.00081
G1 Z1.116 X6.754 Y-13.245 E0.00040
G1 Z1.117 X6.814 Y-13.304 E0.00045
G1 Z1.118 X6.93 Y-13.412 E0.00092
G1 Z1.119 X6.991 Y-13.466 E0.00050
G1 Z1.121 X7.113 Y-13.568 E0.00103
G1 Z1.121 X7.173 Y-13.616 E0.00051
G1 Z1.123 X7.304 Y-13.714 E0.00117
G1 Z1.123 X7.366 Y-13.759 E0.00056
G1 Z1.125 X7.5 Y-13.849 E0.00126
G1 Z1.126 X7.638 Y-13.935 E0.00133
G1 Z1.127 X7.703 Y-13.974 E0.00064
G1 Z1.128 X7.85 Y-14.055 E0.00149
G1 Z1.130 X7.989 Y-14.126 E0.00146
G1 Z1.130 X8.06 Y-14.16 E0.00075
G1 Z1.131 X8.131 Y-14.192 E0.00076
G1 Z1.132 X8.281 Y-14.256 E0.00165
G1 Z1.134 X8.432 Y-14.314 E0.00172
G1 Z1.134 X8.509 Y-14.341 E0.00089
G1 Z1.136 X8.659 Y-14.39 E0.00179
G1 Z1.137 X8.738 Y-14.413 E0.00094
G1 Z1.138 X8.891 Y-14.454 E0.00190
G1 Z1.139 X8.966 Y-14.472 E0.00093
G1 Z1.140 X9.124 Y-14.506 E0.00204
G1 Z1.141 X9.284 Y-14.534 E0.00212
G1 Z1.142 X9.359 Y-14.545 E0.00102
G1 Z1.143 X9.522 Y-14.565 E0.00224
G1 Z1.145 X9.683 Y-14.579 E0.00229
G1 Z1.146 X9.84 Y-14.587 E0.00229
G1 Z1.148 X10.005 Y-14.59 E0.00249
G1 Z1.149 X10.162 Y-14.587 E0.00243
G1 Z1.150 X10.238 Y-14.584 E0.00120
G1 Z1.151 X10.402 Y-14.572 E0.00264
G1 Z1.153 X10.563 Y-14.555 E0.00268
G1 Z1.154 X10.72 Y-14.533 E0.00269
G1 Z1.155 X10.8 Y-14.52 E0.00141
G1 Z1.156 X10.954 Y-14.49 E0.00276
G1 Z1.157 X11.115 Y-14.452 E0.00300
G1 Z1.159 X11.267 Y-14.412 E0.00291
G1 Z1.160 X11.421 Y-14.364 E0.00307
G1 Z1.162 X11.571 Y-14.313 E0.00307
G1 Z1.162 X11.648 Y-14.284 E0.00161
G1 Z1.164 X11.795 Y-14.224 E0.00318
G1 Z1.164 X11.865 Y-14.194 E0.00155
G1 Z1.166 X12.012 Y-14.125 E0.00336
G1 Z1.167 X12.156 Y-14.052 E0.00343
G1 Z1.168 X12.224 Y-14.015 E0.00164
G1 Z1.169 X12.366 Y-13.933 E0.00357
G1 Z1.170 X12.431 Y-13.893 E0.00169
G1 Z1.171 X12.568 Y-13.804 E0.00368
G1 Z1.172 X12.635 Y-13.758 E0.00186
G1 Z1.173 X12.762 Y-13.666 E0.00362
G1 Z1.175 X12.893 Y-13.564 E0.00390
G1 Z1.176 X13.013 Y-13.463 E0.00377
G1 Z1.177 X13.07 Y-13.412 E0.00185
G1 Z1.178 X13.19 Y-13.301 E0.00404
G1 Z1.179 X13.244 Y-13.247 E0.00190
G1 Z1.180 X13.358 Y-13.129 E0.00415
G1 Z1.181 X13.41 Y-13.073 E0.00196
G1 Z1.182 X13.517 Y-12.949 E0.00425
G1 Z1.183 X13.567 Y-12.889 E0.00205
G1 Z1.184 X13.616 Y-12.827 E0.00207
